X: 4331
T: Castle Campbell.  a Reel.
%R: reel
B: Niel Gow & Sons "Complete Repository" v.4 p.33 #1
Z: 2021 John Chambers <jc:trillian.mit.edu>
M: C|
L: 1/8
K: C
% - - - - - - - - - -
% Voice 1 formatted for compactness and proofreading.
V: 1 staves=2
f |\
ecTc2 GcTc2 | ECGE cGEC | fd (Td3/^c//d//) Ad (Td3/^c//d//) | FDAF dAFD | ecTc2 GcTc2 |
ECGE cGEC | egec dfdB | dCEG c2C |[| f | e>g (Tg3/^f//g//) c>g (Tg3/^f//g//) | ecfd gece | faTa2 daTa2 |
fdge afdf | eg (Tg3/^f//g//) c>g (Tg3/^f//g//) | ecfd gecf | egec dfdB | cCEG c2C |]
% - - - - - - - - - -
% Voice 2 preserves the book's staff layout.
V: 2 clef=bass middle=d
z |\
C2c2 c2c2 | C2E2 G2c2 | D2d2 D2d2 | D2F2 A2d2 | C2c2 C2c2 |
C2E2 G2c2 | c2c'2 b2g2 | c'ceg c'2c |[| z | c2c'2 c2c'2 | [c'2c2][d'2d2] [e'4e4] | d2d'2 d2d'2 |
[d'2d2][e'2e2] [f'4f4] | c2c'2 c2c'2 | [c'2c2][d'2d2] [e'4e4] | c'2c'2 b2g2 | c'ceg c'2c |]

% % Comment about the set of tunes starting with Appin House:
%%sep 1 0 500
